<?xml version="1.0"?>
<VTKFile type="ImageData" version="0.1" byte_order="LittleEndian">
<ImageData WholeExtent="0 10 0 10 0 10" Origin="0 0 0" Spacing="1.000000e-01 1.000000e-01 1.000000e-01">
<CellData Scalars="density">
<DataArray type="Float64" Name="density" format="ascii">
3.570966e+19 3.559558e+19 3.567344e+19 3.642128e+19 3.642128e+19 3.666754e+19 3.656252e+19 3.703512e+19 3.757653e+19 3.796765e+19 3.586176e+19 3.619856e+19 3.601748e+19 3.612613e+19 3.623115e+19 3.698985e+19 3.712928e+19 3.816140e+19 3.936373e+19 4.048096e+19 3.603197e+19 3.593600e+19 3.575855e+19 3.612069e+19 3.646836e+19 3.667840e+19 3.806543e+19 3.960094e+19 4.068377e+19 4.229895e+19 3.595773e+19 3.593781e+19 3.570241e+19 3.612794e+19 3.645568e+19 3.756748e+19 3.899796e+19 4.132477e+19 4.326951e+19 4.380367e+19 3.598851e+19 3.624020e+19 3.609353e+19 3.638687e+19 3.702063e+19 3.836601e+19 4.093184e+19 4.311921e+19 4.474345e+19 4.447908e+19 3.602110e+19 3.589978e+19 3.644482e+19 3.651000e+19 3.680697e+19 3.932752e+19 4.223014e+19 4.472715e+19 4.508568e+19 4.390327e+19 3.612794e+19 3.588892e+19 3.613337e+19 3.624201e+19 3.742262e+19 3.907945e+19 4.224463e+19 4.423282e+19 4.483942e+19 4.358639e+19 3.593600e+19 3.612613e+19 3.612069e+19 3.650638e+19 3.726146e+19 3.879697e+19 4.123061e+19 4.364433e+19 4.472353e+19 4.425455e+19 3.620399e+19 3.603016e+19 3.593238e+19 3.622572e+19 3.649914e+19 3.757653e+19 3.932752e+19 4.184445e+19 4.331296e+19 4.373306e+19 3.608448e+19 3.596316e+19 3.614967e+19 3.633436e+19 3.654079e+19 3.682145e+19 3.775579e+19 3.920982e+19 4.067471e+19 4.171227e+19 3.572595e+19 3.601024e+19 3.590703e+19 3.607361e+19 3.622753e+19 3.666030e+19 3.678162e+19 3.779020e+19 3.897442e+19 4.008079e+19 3.675445e+19 3.636877e+19 3.635247e+19 3.637963e+19 3.626917e+19 3.693734e+19 3.795135e+19 3.926052e+19 4.112197e+19 4.253616e+19 3.616234e+19 3.668565e+19 3.638868e+19 3.631806e+19 3.684318e+19 3.794592e+19 4.006630e+19 4.195491e+19 4.370952e+19 4.418212e+19 3.594505e+19 3.612069e+19 3.613518e+19 3.651181e+19 3.740089e+19 3.991058e+19 4.324597e+19 4.476880e+19 4.483218e+19 4.305041e+19 3.596678e+19 3.613880e+19 3.627280e+19 3.721438e+19 3.895088e+19 4.243294e+19 4.609426e+19 4.672802e+19 4.435052e+19 4.058780e+19 3.615510e+19 3.677618e+19 3.658787e+19 3.703874e+19 4.014416e+19 4.490823e+19 4.745775e+19 4.565969e+19 4.188972e+19 3.806362e+19 3.619312e+19 3.591608e+19 3.621123e+19 3.710393e+19 4.000112e+19 4.505852e+19 4.770945e+19 4.577920e+19 4.165251e+19 3.721438e+19 3.638868e+19 3.614604e+19 3.620942e+19 3.680697e+19 3.907402e+19 4.280233e+19 4.620110e+19 4.617937e+19 4.351939e+19 4.006449e+19 3.608267e+19 3.645025e+19 3.649190e+19 3.681602e+19 3.757834e+19 4.010795e+19 4.290736e+19 4.500058e+19 4.513276e+19 4.278966e+19 3.627823e+19 3.638325e+19 3.611164e+19 3.615329e+19 3.681602e+19 3.777028e+19 4.018219e+19 4.219936e+19 4.352844e+19 4.359906e+19 3.599575e+19 3.610802e+19 3.592876e+19 3.632712e+19 3.676351e+19 3.706228e+19 3.753851e+19 3.853622e+19 3.988342e+19 4.150584e+19 3.568249e+19 3.589978e+19 3.597040e+19 3.607724e+19 3.627642e+19 3.722344e+19 3.929674e+19 4.132839e+19 4.316267e+19 4.373125e+19 3.591608e+19 3.577122e+19 3.579295e+19 3.639049e+19 3.785901e+19 3.980918e+19 4.302506e+19 4.509111e+19 4.490098e+19 4.335461e+19 3.615872e+19 3.616415e+19 3.675445e+19 3.676170e+19 4.001741e+19 4.489012e+19 4.766961e+19 4.673346e+19 4.263031e+19 3.865211e+19 3.658424e+19 3.669832e+19 3.667116e+19 3.817951e+19 4.348136e+19 5.090903e+19 5.002177e+19 4.329305e+19 3.688845e+19 3.180569e+19 3.645025e+19 3.641222e+19 3.707314e+19 3.919533e+19 4.849893e+19 5.600446e+19 4.924496e+19 3.826099e+19 3.113572e+19 2.788544e+19 3.600300e+19 3.625469e+19 3.685042e+19 3.923155e+19 4.824724e+19 5.663460e+19 4.896248e+19 3.812156e+19 3.142182e+19 2.748345e+19 3.665305e+19 3.643938e+19 3.676894e+19 3.793506e+19 4.416039e+19 5.082936e+19 4.988053e+19 4.344334e+19 3.673635e+19 3.214611e+19 3.616415e+19 3.635247e+19 3.629634e+19 3.720714e+19 3.994317e+19 4.445554e+19 4.821827e+19 4.678235e+19 4.238948e+19 3.794592e+19 3.580562e+19 3.552496e+19 3.598308e+19 3.629453e+19 3.741719e+19 4.029083e+19 4.327494e+19 4.484304e+19 4.461670e+19 4.331659e+19 3.557928e+19 3.592694e+19 3.558290e+19 3.594867e+19 3.631444e+19 3.630177e+19 3.755299e+19 3.925690e+19 4.081052e+19 4.216133e+19 3.599213e+19 3.624564e+19 3.604283e+19 3.629634e+19 3.663494e+19 3.858693e+19 4.160000e+19 4.354836e+19 4.458229e+19 4.402459e+19 3.635066e+19 3.576036e+19 3.609534e+19 3.696450e+19 3.892191e+19 4.269369e+19 4.619386e+19 4.639123e+19 4.408615e+19 4.049364e+19 3.598127e+19 3.583098e+19 3.620580e+19 3.784271e+19 4.328942e+19 5.042194e+19 4.984612e+19 4.319164e+19 3.684499e+19 3.255715e+19 3.607905e+19 3.590522e+19 3.671100e+19 4.038861e+19 5.416112e+19 6.234930e+19 4.445373e+19 3.152141e+19 2.590448e+19 2.259264e+19 3.575855e+19 3.663132e+19 3.744978e+19 4.412237e+19 7.174524e+19 5.937968e+19 2.378954e+19 1.849674e+19 1.750083e+19 1.760404e+19 3.652811e+19 3.654622e+19 3.721981e+19 4.349585e+19 7.274115e+19 5.915153e+19 2.298738e+19 1.836817e+19 1.703547e+19 1.729078e+19 3.644663e+19 3.619131e+19 3.724879e+19 4.080327e+19 5.430598e+19 6.201794e+19 4.443743e+19 3.151779e+19 2.563649e+19 2.292581e+19 3.643214e+19 3.658605e+19 3.661322e+19 3.803284e+19 4.348317e+19 5.030062e+19 4.948579e+19 4.300152e+19 3.669470e+19 3.200850e+19 3.605551e+19 3.593600e+19 3.639774e+19 3.703150e+19 3.908669e+19 4.296530e+19 4.567779e+19 4.580455e+19 4.395397e+19 4.055520e+19 3.548331e+19 3.553582e+19 3.557747e+19 3.584546e+19 3.574044e+19 3.660054e+19 3.785539e+19 3.989971e+19 4.176659e+19 4.338177e+19 3.574768e+19 3.585089e+19 3.613156e+19 3.636333e+19 3.724879e+19 3.946514e+19 4.240035e+19 4.436138e+19 4.496979e+19 4.392137e+19 3.654984e+19 3.675808e+19 3.654622e+19 3.700796e+19 3.973313e+19 4.509473e+19 4.835407e+19 4.638398e+19 4.184807e+19 3.789522e+19 3.589435e+19 3.610440e+19 3.654622e+19 3.861952e+19 4.824724e+19 5.643179e+19 4.883211e+19 3.837688e+19 3.129325e+19 2.751786e+19 3.618588e+19 3.650095e+19 3.723973e+19 4.375660e+19 7.193899e+19 5.845258e+19 2.299462e+19 1.827220e+19 1.721654e+19 1.755515e+19 3.633979e+19 3.650276e+19 3.806362e+19 5.073339e+19 9.802636e+19 1.564482e+18 6.699748e+16 2.765004e+18 7.451206e+18 1.142760e+19 3.607724e+19 3.619675e+19 3.720714e+19 5.073882e+19 9.811509e+19 1.600696e+18 7.061896e+16 2.707060e+18 7.471124e+18 1.077030e+19 3.603197e+19 3.640679e+19 3.727052e+19 4.337091e+19 7.206212e+19 5.934528e+19 2.334047e+19 1.837542e+19 1.752980e+19 1.728354e+19 3.653173e+19 3.640860e+19 3.687034e+19 3.898891e+19 4.809695e+19 5.662916e+19 4.899688e+19 3.801835e+19 3.128058e+19 2.749251e+19 3.595773e+19 3.596859e+19 3.641222e+19 3.734657e+19 4.031618e+19 4.493720e+19 4.797200e+19 4.641114e+19 4.192956e+19 3.846923e+19 3.558471e+19 3.608810e+19 3.598127e+19 3.594505e+19 3.640498e+19 3.723430e+19 3.824288e+19 4.045923e+19 4.242208e+19 4.346869e+19 3.612069e+19 3.619856e+19 3.607543e+19 3.639231e+19 3.737554e+19 3.922069e+19 4.215409e+19 4.498971e+19 4.487745e+19 4.375297e+19 3.662227e+19 3.603740e+19 3.656795e+19 3.700977e+19 4.007898e+19 4.562890e+19 4.817481e+19 4.668094e+19 4.273715e+19 3.804008e+19 3.671462e+19 3.659149e+19 3.686853e+19 3.944341e+19 4.841383e+19 5.673238e+19 4.890273e+19 3.813062e+19 3.172059e+19 2.765547e+19 3.599213e+19 3.607543e+19 3.729949e+19 4.389964e+19 7.215809e+19 5.834937e+19 2.327891e+19 1.832653e+19 1.740486e+19 1.752980e+19 3.605732e+19 3.616596e+19 3.790428e+19 5.093257e+19 9.742701e+19 1.510159e+18 9.053713e+16 2.638252e+18 7.480178e+18 1.108899e+19 3.599756e+19 3.600843e+19 3.801835e+19 5.144139e+19 9.680954e+19 1.519213e+18 6.337599e+16 2.661792e+18 7.320832e+18 1.125739e+19 3.605189e+19 3.616596e+19 3.692829e+19 4.270274e+19 7.236995e+19 5.891613e+19 2.258901e+19 1.790824e+19 1.718757e+19 1.724370e+19 3.621485e+19 3.638687e+19 3.646111e+19 3.867384e+19 4.797563e+19 5.646258e+19 4.892989e+19 3.793506e+19 3.103975e+19 2.732773e+19 3.579114e+19 3.580200e+19 3.584184e+19 3.660235e+19 3.958283e+19 4.450262e+19 4.782171e+19 4.607797e+19 4.214503e+19 3.797489e+19 3.603197e+19 3.614967e+19 3.642852e+19 3.657519e+19 3.659692e+19 3.710212e+19 3.796946e+19 3.936736e+19 4.108394e+19 4.244019e+19 3.662227e+19 3.647017e+19 3.668202e+19 3.701339e+19 3.711117e+19 3.795135e+19 4.103505e+19 4.313370e+19 4.431430e+19 4.387610e+19 3.639774e+19 3.648284e+19 3.673997e+19 3.700977e+19 3.906677e+19 4.281139e+19 4.635501e+19 4.647814e+19 4.411693e+19 4.042121e+19 3.633074e+19 3.617683e+19 3.635609e+19 3.808535e+19 4.381635e+19 5.048713e+19 4.947311e+19 4.301419e+19 3.691923e+19 3.204109e+19 3.626917e+19 3.614604e+19 3.648827e+19 4.018219e+19 5.369214e+19 6.175900e+19 4.445916e+19 3.153046e+19 2.584292e+19 2.345636e+19 3.631082e+19 3.640317e+19 3.702063e+19 4.371676e+19 7.223958e+19 5.964043e+19 2.348171e+19 1.840801e+19 1.730708e+19 1.716946e+19 3.612794e+19 3.648646e+19 3.737735e+19 4.344515e+19 7.145734e+19 5.998266e+19 2.317207e+19 1.829755e+19 1.731251e+19 1.731432e+19 3.614061e+19 3.599756e+19 3.675626e+19 3.978202e+19 5.329921e+19 6.231309e+19 4.462394e+19 3.148700e+19 2.559123e+19 2.272120e+19 3.603559e+19 3.629996e+19 3.637239e+19 3.801835e+19 4.270999e+19 5.031511e+19 4.962159e+19 4.273534e+19 3.640498e+19 3.159384e+19 3.606094e+19 3.606999e+19 3.656614e+19 3.691199e+19 3.893821e+19 4.265566e+19 4.614859e+19 4.612686e+19 4.374935e+19 4.046285e+19 3.632531e+19 3.616596e+19 3.643214e+19 3.580744e+19 3.629634e+19 3.660054e+19 3.733027e+19 3.866841e+19 4.033972e+19 4.135736e+19 3.621123e+19 3.620761e+19 3.605913e+19 3.611526e+19 3.632531e+19 3.753488e+19 3.900521e+19 4.110748e+19 4.350490e+19 4.387792e+19 3.605732e+19 3.652087e+19 3.632531e+19 3.699347e+19 3.802378e+19 4.038499e+19 4.297617e+19 4.520157e+19 4.486477e+19 4.379824e+19 3.648284e+19 3.637239e+19 3.682326e+19 3.743348e+19 4.020392e+19 4.520338e+19 4.779093e+19 4.644374e+19 4.287114e+19 3.875714e+19 3.625469e+19 3.635066e+19 3.674178e+19 3.840223e+19 4.370952e+19 5.082392e+19 5.050704e+19 4.347955e+19 3.682326e+19 3.205014e+19 3.619675e+19 3.629090e+19 3.660054e+19 3.849096e+19 4.774385e+19 5.576725e+19 4.845185e+19 3.810889e+19 3.175318e+19 2.742008e+19 3.591608e+19 3.618045e+19 3.670737e+19 3.894726e+19 4.793398e+19 5.660019e+19 4.901318e+19 3.813967e+19 3.134939e+19 2.772428e+19 3.596316e+19 3.610440e+19 3.619131e+19 3.739727e+19 4.316629e+19 5.009963e+19 4.976826e+19 4.308662e+19 3.652268e+19 3.202298e+19 3.654803e+19 3.610078e+19 3.656252e+19 3.767793e+19 4.011519e+19 4.445373e+19 4.749035e+19 4.628258e+19 4.270093e+19 3.825013e+19 3.581106e+19 3.576036e+19 3.570966e+19 3.614242e+19 3.731578e+19 4.005906e+19 4.322605e+19 4.533918e+19 4.533375e+19 4.337453e+19 3.583460e+19 3.585270e+19 3.578752e+19 3.586719e+19 3.612794e+19 3.652992e+19 3.682869e+19 3.723249e+19 3.843482e+19 3.992325e+19 3.637963e+19 3.684137e+19 3.640498e+19 3.641041e+19 3.682145e+19 3.710212e+19 3.825013e+19 3.949049e+19 4.064936e+19 4.198569e+19 3.671824e+19 3.623658e+19 3.637058e+19 3.646836e+19 3.693191e+19 3.767612e+19 3.988885e+19 4.227360e+19 4.371314e+19 4.406261e+19 3.608810e+19 3.627461e+19 3.647560e+19 3.663313e+19 3.767612e+19 4.011881e+19 4.318440e+19 4.534100e+19 4.481588e+19 4.326588e+19 3.642671e+19 3.581287e+19 3.629634e+19 3.694458e+19 3.872092e+19 4.250175e+19 4.571401e+19 4.643649e+19 4.383627e+19 4.072179e+19 3.632169e+19 3.625107e+19 3.639774e+19 3.704417e+19 3.990696e+19 4.467283e+19 4.811324e+19 4.620834e+19 4.200742e+19 3.769966e+19 3.622391e+19 3.607724e+19 3.612794e+19 3.706228e+19 4.005363e+19 4.512008e+19 4.754648e+19 4.622102e+19 4.211787e+19 3.780468e+19 3.641041e+19 3.643214e+19 3.624564e+19 3.686491e+19 3.898529e+19 4.317354e+19 4.677510e+19 4.657049e+19 4.399561e+19 3.994860e+19 3.624201e+19 3.642309e+19 3.627823e+19 3.647379e+19 3.729768e+19 3.982185e+19 4.306489e+19 4.505671e+19 4.504947e+19 4.329123e+19 3.553401e+19 3.595773e+19 3.617139e+19 3.622210e+19 3.665305e+19 3.771596e+19 4.013511e+19 4.169416e+19 4.387248e+19 4.358276e+19 3.563723e+19 3.572233e+19 3.601929e+19 3.649371e+19 3.649371e+19 3.658062e+19 3.677437e+19 3.711117e+19 3.776847e+19 3.842215e+19 3.550323e+19 3.597765e+19 3.587443e+19 3.598851e+19 3.620580e+19 3.647379e+19 3.729406e+19 3.833885e+19 3.899615e+19 4.047191e+19 3.565533e+19 3.600843e+19 3.596859e+19 3.615329e+19 3.594324e+19 3.686672e+19 3.781374e+19 3.953757e+19 4.068014e+19 4.184807e+19 3.610078e+19 3.588349e+19 3.620399e+19 3.587443e+19 3.631082e+19 3.754032e+19 3.936192e+19 4.122699e+19 4.344153e+19 4.399018e+19 3.613880e+19 3.635609e+19 3.677075e+19 3.667840e+19 3.708401e+19 3.848915e+19 4.101151e+19 4.331840e+19 4.393043e+19 4.366063e+19 3.538010e+19 3.547607e+19 3.536561e+19 3.554126e+19 3.691923e+19 3.934201e+19 4.173037e+19 4.408977e+19 4.477423e+19 4.390146e+19 3.617683e+19 3.619131e+19 3.607543e+19 3.621666e+19 3.719628e+19 3.908488e+19 4.204907e+19 4.476337e+19 4.508387e+19 4.359906e+19 3.591065e+19 3.557385e+19 3.628547e+19 3.670556e+19 3.730492e+19 3.850363e+19 4.124510e+19 4.349947e+19 4.399199e+19 4.388516e+19 3.640679e+19 3.642852e+19 3.605732e+19 3.643938e+19 3.671643e+19 3.761094e+19 3.917180e+19 4.104772e+19 4.268464e+19 4.352301e+19 3.582192e+19 3.549780e+19 3.570241e+19 3.594143e+19 3.606818e+19 3.652811e+19 3.781555e+19 3.893459e+19 4.085760e+19 4.215047e+19 
</DataArray>
<DataArray type="Float64" Name="velocity" NumberOfComponents="3" format="ascii">
1.054218e+03 -4.458920e-01 -1.414969e+00 1.054401e+03 -1.915855e+00 -8.013710e-01 1.054552e+03 5.053580e-01 -2.626427e+00 1.053315e+03 -1.112581e+00 -1.953878e+00 1.051547e+03 -9.916753e-01 -2.185117e+00 1.050653e+03 -2.630682e+00 -2.276626e+00 1.050121e+03 -6.208711e+00 -3.668819e+00 1.044975e+03 -1.052445e+01 -8.484491e+00 1.044249e+03 -1.385887e+01 -1.122242e+01 1.037267e+03 -2.291446e+01 -1.927030e+01 1.053618e+03 -2.228493e+00 1.662365e-01 1.051855e+03 -7.191586e-01 -1.043815e+00 1.053637e+03 -2.850709e+00 -1.176268e+00 1.053137e+03 -3.715958e+00 -6.827231e-01 1.052439e+03 -2.087613e+00 -3.891576e+00 1.052338e+03 -5.542388e+00 -4.845170e+00 1.044988e+03 -1.021509e+01 -1.004672e+01 1.038667e+03 -1.749789e+01 -1.557452e+01 1.033477e+03 -2.577566e+01 -2.605026e+01 1.025225e+03 -3.635696e+01 -3.862041e+01 1.051015e+03 -2.497202e+00 -4.004996e-01 1.053242e+03 -3.795159e+00 -2.270993e+00 1.052796e+03 -2.522713e+00 -2.334514e+00 1.048760e+03 -1.874138e+00 -4.855224e+00 1.047582e+03 -5.341657e+00 -5.474968e+00 1.041355e+03 -9.769551e+00 -1.148314e+01 1.031053e+03 -1.720551e+01 -2.375684e+01 1.021055e+03 -2.921310e+01 -3.763550e+01 1.009938e+03 -3.926985e+01 -5.253488e+01 1.009752e+03 -4.201544e+01 -6.279039e+01 1.054996e+03 4.694200e-01 -1.920327e+00 1.053109e+03 -1.753573e+00 -8.920796e-01 1.053928e+03 -3.760942e+00 -2.329945e+00 1.051148e+03 -1.351621e+00 -5.252250e+00 1.042259e+03 -6.784177e+00 -1.344798e+01 1.034722e+03 -1.315966e+01 -2.301770e+01 1.016195e+03 -2.150319e+01 -3.880528e+01 1.006723e+03 -3.248633e+01 -6.288666e+01 9.999007e+02 -4.068946e+01 -7.504052e+01 9.964087e+02 -4.040978e+01 -8.135983e+01 1.051572e+03 5.075514e-01 -1.935174e+00 1.050919e+03 1.267178e+00 -3.401253e+00 1.050565e+03 4.312072e-01 -5.260752e+00 1.045942e+03 3.002615e-01 -3.726042e+00 1.037559e+03 -6.576137e+00 -1.529954e+01 1.018472e+03 -1.172781e+01 -3.677647e+01 1.001556e+03 -1.946056e+01 -6.150783e+01 9.862347e+02 -2.728935e+01 -8.562005e+01 9.832743e+02 -3.063257e+01 -9.723246e+01 9.898799e+02 -2.829105e+01 -9.355663e+01 1.051794e+03 -1.393242e+00 1.831196e-01 1.051453e+03 -1.838121e+00 -1.337384e+00 1.050302e+03 7.856296e-02 -1.745902e+00 1.046898e+03 1.828767e-01 -4.775220e+00 1.033403e+03 7.706404e-01 -1.986174e+01 1.006955e+03 -4.304062e+00 -4.680686e+01 9.837322e+02 -7.961781e+00 -8.000857e+01 9.750464e+02 -1.284610e+01 -1.002039e+02 9.758819e+02 -1.083636e+01 -1.051990e+02 9.816565e+02 -8.507938e+00 -9.948667e+01 1.051945e+03 -7.365489e-01 -1.193658e+00 1.052728e+03 3.947678e-01 -1.434432e+00 1.049994e+03 -3.884478e-01 -4.140901e+00 1.045610e+03 -5.794050e-01 -6.497799e+00 1.030372e+03 2.021090e+00 -2.302970e+01 1.006686e+03 6.086238e+00 -4.992278e+01 9.877890e+02 1.115357e+01 -8.276781e+01 9.722686e+02 1.166897e+01 -1.044170e+02 9.766838e+02 1.365573e+01 -1.057855e+02 9.815631e+02 9.956853e+00 -9.543182e+01 1.051080e+03 -1.042236e+00 -4.193433e+00 1.049085e+03 -6.616371e-01 -4.121172e+00 1.051976e+03 -2.452133e-01 -3.732703e+00 1.046984e+03 8.367207e-01 -5.673059e+00 1.036888e+03 4.650770e+00 -1.528321e+01 1.015951e+03 1.304571e+01 -3.768484e+01 1.000002e+03 2.023768e+01 -6.460410e+01 9.864041e+02 3.081917e+01 -8.898410e+01 9.834030e+02 3.253616e+01 -9.481478e+01 9.913315e+02 3.225142e+01 -9.011358e+01 1.054114e+03 1.512140e+00 -6.493476e-02 1.054861e+03 2.987532e+00 -1.410278e+00 1.051789e+03 2.587920e-01 -1.126399e+00 1.050615e+03 1.606009e+00 -4.290175e+00 1.040526e+03 4.904674e+00 -7.694377e+00 1.033867e+03 9.184989e+00 -1.873204e+01 1.017220e+03 2.401565e+01 -4.319183e+01 1.004879e+03 3.417618e+01 -6.612085e+01 9.990052e+02 4.213161e+01 -8.338788e+01 9.984141e+02 4.467045e+01 -8.210495e+01 1.053037e+03 1.629563e+00 -2.030089e+00 1.051099e+03 1.778655e+00 -1.085942e+00 1.049634e+03 2.170968e+00 -1.588523e+00 1.051893e+03 2.376971e+00 -1.173841e+00 1.048643e+03 5.081060e+00 -5.429371e+00 1.042216e+03 1.175314e+01 -9.437159e+00 1.031440e+03 1.688723e+01 -2.105618e+01 1.025085e+03 2.983571e+01 -3.354725e+01 1.015646e+03 4.097509e+01 -4.991777e+01 1.013304e+03 4.824129e+01 -6.141145e+01 1.054082e+03 -2.452367e+00 1.123842e+00 1.054046e+03 -7.125907e-01 -9.918855e-01 1.052996e+03 1.062445e+00 -7.369639e-01 1.055543e+03 1.452823e+00 2.691082e+00 1.053671e+03 -2.629660e+00 1.381048e+00 1.049083e+03 -6.712658e+00 -2.414878e+00 1.043741e+03 -1.057668e+01 -5.742692e+00 1.038721e+03 -1.795464e+01 -1.354267e+01 1.030809e+03 -3.061146e+01 -1.910968e+01 1.023983e+03 -4.158930e+01 -2.328882e+01 1.053476e+03 -9.482588e-01 3.230203e+00 1.054464e+03 -6.023906e-01 6.444894e-01 1.053497e+03 -2.244311e+00 2.855229e+00 1.052828e+03 -4.484671e+00 -2.743164e+00 1.048055e+03 -4.791429e+00 -3.649739e+00 1.039615e+03 -1.178672e+01 -8.096284e+00 1.031134e+03 -1.875027e+01 -1.670290e+01 1.020402e+03 -3.692524e+01 -2.949682e+01 1.010897e+03 -5.294377e+01 -4.230684e+01 1.008203e+03 -6.050868e+01 -4.961292e+01 1.050793e+03 2.661338e+00 -2.007835e+00 1.049446e+03 1.006001e+00 9.741342e-01 1.049758e+03 6.011983e-01 4.269463e-01 1.048563e+03 -2.046414e+00 -1.351539e+00 1.039168e+03 -6.945886e+00 -1.038298e+01 1.024094e+03 -1.686140e+01 -2.442390e+01 1.004164e+03 -4.038256e+01 -4.404609e+01 9.929359e+02 -5.513915e+01 -5.609126e+01 9.865690e+02 -6.596549e+01 -6.634729e+01 9.878061e+02 -6.662892e+01 -6.790588e+01 1.054533e+03 -3.973905e-01 -1.170915e+00 1.053133e+03 -5.839803e-01 -2.111831e+00 1.049409e+03 2.474098e+00 -2.497662e+00 1.043788e+03 -3.354262e+00 -6.825292e+00 1.025578e+03 -1.611506e+01 -1.898847e+01 9.958162e+02 -3.377210e+01 -4.647075e+01 9.706855e+02 -5.318912e+01 -7.416051e+01 9.664234e+02 -6.116920e+01 -9.019245e+01 9.661557e+02 -6.181322e+01 -9.046230e+01 9.713576e+02 -5.325994e+01 -8.004524e+01 1.052263e+03 -2.351653e-01 8.694299e-01 1.050801e+03 2.063717e-01 -8.842161e-01 1.046743e+03 -3.302013e+00 -2.670784e+00 1.035867e+03 -5.080986e+00 -1.057931e+01 9.987390e+02 -1.383316e+01 -3.966560e+01 9.559863e+02 -3.424672e+01 -8.245795e+01 9.350001e+02 -4.779514e+01 -1.115736e+02 9.375610e+02 -4.764836e+01 -1.163487e+02 9.513011e+02 -4.071448e+01 -9.737195e+01 9.620666e+02 -3.275102e+01 -7.645280e+01 1.048215e+03 7.746739e-01 -1.489840e-01 1.051777e+03 2.387475e-01 7.733984e-02 1.045061e+03 1.956069e+00 -2.934279e+00 1.028643e+03 -2.831225e+00 -1.454378e+01 9.814091e+02 -8.213405e+00 -5.468461e+01 9.273495e+02 -1.509641e+01 -1.090751e+02 9.135630e+02 -2.242436e+01 -1.361186e+02 9.271880e+02 -2.121200e+01 -1.237384e+02 9.415303e+02 -1.626099e+01 -9.529083e+01 9.555662e+02 -9.614193e+00 -6.800646e+01 1.051235e+03 -2.162672e-01 2.309907e+00 1.047427e+03 2.091716e+00 2.581144e+00 1.047259e+03 2.259562e+00 -2.789047e+00 1.032069e+03 3.114531e+00 -1.561619e+01 9.777237e+02 8.905545e+00 -5.334043e+01 9.270336e+02 1.174316e+01 -1.126855e+02 9.154910e+02 1.779509e+01 -1.369524e+02 9.254331e+02 1.418296e+01 -1.255780e+02 9.409731e+02 1.335490e+01 -9.430791e+01 9.539782e+02 8.099211e+00 -6.791577e+01 1.050652e+03 2.395245e+00 6.117444e-01 1.051475e+03 3.449690e+00 -1.269998e+00 1.046538e+03 2.710917e+00 -3.707542e+00 1.033105e+03 5.328285e+00 -1.172866e+01 9.993956e+02 1.449606e+01 -3.964325e+01 9.542229e+02 3.417681e+01 -7.738643e+01 9.380575e+02 4.603999e+01 -1.123571e+02 9.381129e+02 5.050892e+01 -1.140708e+02 9.514476e+02 4.243046e+01 -9.889487e+01 9.631878e+02 3.073389e+01 -7.464476e+01 1.051460e+03 -9.250535e-01 -1.453829e+00 1.052362e+03 -1.629357e+00 -3.655380e-02 1.048946e+03 2.309214e+00 -1.479485e+00 1.042393e+03 3.936798e+00 -5.021705e+00 1.025272e+03 1.295044e+01 -1.964069e+01 9.966713e+02 3.179156e+01 -4.622643e+01 9.719346e+02 5.350630e+01 -7.614811e+01 9.638193e+02 6.520550e+01 -9.081852e+01 9.662348e+02 6.377700e+01 -9.046407e+01 9.752535e+02 5.704332e+01 -7.715354e+01 1.052889e+03 1.659657e+00 3.477662e-01 1.051306e+03 3.219408e+00 -4.774739e-01 1.053443e+03 2.345884e+00 -9.876351e-01 1.050658e+03 4.214223e+00 -3.434563e+00 1.041812e+03 1.024545e+01 -8.351918e+00 1.027132e+03 2.180410e+01 -2.086081e+01 1.009477e+03 3.977508e+01 -3.870839e+01 9.978118e+02 5.694361e+01 -5.698079e+01 9.949915e+02 6.939855e+01 -6.062809e+01 9.975977e+02 6.851530e+01 -5.874879e+01 1.052922e+03 -3.348023e+00 -4.385924e+00 1.052574e+03 -2.745963e+00 1.299340e+00 1.052513e+03 -1.461416e+00 8.314740e-01 1.052889e+03 4.458670e-01 2.716157e+00 1.048456e+03 -1.296565e+00 -4.233130e-01 1.044773e+03 -5.309449e+00 -3.480584e+00 1.036744e+03 -1.712342e+01 -6.763918e+00 1.028900e+03 -3.066118e+01 -1.472007e+01 1.018897e+03 -4.745795e+01 -2.358326e+01 1.013862e+03 -6.095664e+01 -2.832028e+01 1.052010e+03 -4.765284e-01 4.890757e+00 1.050161e+03 8.547674e-01 1.859749e+00 1.048959e+03 -1.429112e+00 -2.400072e-02 1.047172e+03 -3.234369e+00 -1.377292e+00 1.041124e+03 -7.277530e+00 -3.165228e+00 1.028804e+03 -2.333260e+01 -1.164549e+01 1.014205e+03 -4.037962e+01 -2.418245e+01 1.000712e+03 -6.139380e+01 -3.588775e+01 9.954697e+02 -7.603752e+01 -4.682608e+01 9.936583e+02 -7.793255e+01 -4.885772e+01 1.051991e+03 -3.717747e-01 -5.381441e-01 1.052235e+03 -1.484416e+00 -1.289857e+00 1.047606e+03 -1.428473e+00 -2.570147e+00 1.043154e+03 -7.537566e+00 -4.557178e+00 1.024342e+03 -1.885431e+01 -1.202761e+01 9.951670e+02 -4.598098e+01 -3.174160e+01 9.716925e+02 -7.523652e+01 -5.173246e+01 9.655258e+02 -8.999032e+01 -6.284416e+01 9.647453e+02 -8.650569e+01 -6.310043e+01 9.738522e+02 -7.425436e+01 -5.778738e+01 1.051817e+03 -1.999900e+00 -5.908776e-01 1.051032e+03 -3.277028e-01 -5.805560e-02 1.048719e+03 -5.358822e+00 -2.814829e+00 1.031816e+03 -1.238663e+01 -1.072024e+01 9.864228e+02 -3.573959e+01 -3.622561e+01 9.346319e+02 -7.463426e+01 -7.320333e+01 9.160995e+02 -9.170822e+01 -9.487707e+01 9.245560e+02 -8.783285e+01 -8.885234e+01 9.434652e+02 -6.761191e+01 -6.705457e+01 9.558873e+02 -4.959662e+01 -5.103664e+01 1.052341e+03 -4.936980e-01 -2.353573e+00 1.047904e+03 -4.075349e+00 -1.267623e+00 1.042891e+03 -2.571500e+00 -4.138493e+00 1.011479e+03 -1.161920e+01 -2.022098e+01 9.174247e+02 -4.792659e+01 -7.548392e+01 8.492037e+02 -7.856680e+01 -1.253787e+02 8.622687e+02 -7.841348e+01 -1.269173e+02 8.938086e+02 -5.378661e+01 -9.058041e+01 9.135679e+02 -3.183141e+01 -5.437841e+01 9.303877e+02 -1.367255e+01 -2.479008e+01 1.048669e+03 6.537338e-02 1.201925e+00 1.049994e+03 -5.480200e-01 -4.915376e-01 1.038396e+03 1.680736e+00 -3.087974e+00 9.785144e+02 -5.845092e+00 -3.429406e+01 8.379438e+02 -2.440723e+01 -1.178758e+02 7.619107e+02 -3.780331e+01 -1.730473e+02 8.183767e+02 -2.932594e+01 -1.348246e+02 8.715051e+02 -1.474813e+01 -6.847848e+01 8.989502e+02 -5.825294e+00 -2.422940e+01 9.146679e+02 1.616271e-01 6.271909e+00 1.051098e+03 1.469357e+00 -2.468735e+00 1.047827e+03 1.500434e+00 -2.080981e+00 1.034993e+03 -2.816782e+00 -6.680679e+00 9.820665e+02 6.064924e+00 -3.204548e+01 8.363508e+02 2.266661e+01 -1.203664e+02 7.634266e+02 3.520525e+01 -1.746362e+02 8.173277e+02 2.854133e+01 -1.324016e+02 8.673095e+02 1.530040e+01 -6.935035e+01 8.957748e+02 2.389417e+00 -2.229568e+01 9.121131e+02 -4.549006e+00 2.440214e+00 1.051872e+03 -6.163999e-01 -6.135570e-01 1.050079e+03 -1.443523e+00 -6.828828e-01 1.043141e+03 2.270166e+00 -2.622638e+00 1.012911e+03 1.191883e+01 -1.952750e+01 9.131532e+02 4.861236e+01 -7.796868e+01 8.483980e+02 7.851076e+01 -1.301819e+02 8.594309e+02 7.953214e+01 -1.263871e+02 8.922272e+02 5.363832e+01 -8.809237e+01 9.173110e+02 3.351136e+01 -5.215607e+01 9.330482e+02 1.314781e+01 -2.429349e+01 1.053420e+03 -9.892023e-01 -1.109221e+00 1.053407e+03 1.569682e+00 -2.272451e+00 1.046069e+03 3.902647e+00 -5.160945e+00 1.030374e+03 1.236617e+01 -1.158275e+01 9.831672e+02 3.958369e+01 -3.721173e+01 9.341040e+02 7.616674e+01 -7.474794e+01 9.191193e+02 9.833609e+01 -9.440412e+01 9.262234e+02 8.983306e+01 -8.440527e+01 9.418309e+02 7.608674e+01 -6.745437e+01 9.548525e+02 5.235119e+01 -5.047223e+01 1.054130e+03 2.122429e+00 -3.179137e+00 1.054341e+03 2.313722e+00 -1.905610e+00 1.050403e+03 2.143222e+00 2.537643e-01 1.042024e+03 6.713063e+00 -3.990321e+00 1.025440e+03 1.923094e+01 -1.486429e+01 9.979260e+02 4.919075e+01 -3.332542e+01 9.739256e+02 7.734757e+01 -5.258371e+01 9.681473e+02 9.263775e+01 -6.235942e+01 9.794876e+02 9.312544e+01 -6.054095e+01 9.867635e+02 8.212883e+01 -5.257741e+01 1.052679e+03 2.376625e-01 -3.589062e-01 1.054609e+03 2.656947e+00 -1.611975e+00 1.053606e+03 -1.042720e+00 -2.779212e+00 1.050491e+03 -3.746953e+00 -2.830724e+00 1.048006e+03 -4.957969e+00 -3.107502e+00 1.039753e+03 -1.315937e+01 -2.655659e+00 1.031749e+03 -2.914558e+01 -7.227908e+00 1.015974e+03 -4.962486e+01 -1.160426e+01 1.010169e+03 -6.518478e+01 -1.277435e+01 1.006453e+03 -7.882825e+01 -1.829489e+01 1.053902e+03 -1.975067e+00 6.194477e-01 1.053516e+03 -9.754552e-01 4.278336e-01 1.052126e+03 -1.708125e-01 6.706858e-01 1.049279e+03 -3.705492e+00 1.546483e+00 1.035724e+03 -1.453609e+01 -1.159625e+00 1.016263e+03 -3.639599e+01 -8.374108e+00 9.951695e+02 -6.760296e+01 -2.355961e+01 9.840340e+02 -8.666964e+01 -3.428427e+01 9.788914e+02 -9.844077e+01 -3.511127e+01 9.851890e+02 -9.584214e+01 -3.242125e+01 1.055301e+03 2.510685e+00 -1.215740e+00 1.053236e+03 -1.505547e+00 -9.650363e-01 1.051949e+03 -3.325926e+00 -2.034563e+00 1.035103e+03 -1.016115e+01 -3.163199e+00 9.999527e+02 -3.680584e+01 -1.537944e+01 9.587515e+02 -8.165043e+01 -3.742805e+01 9.354053e+02 -1.098093e+02 -4.898523e+01 9.370546e+02 -1.124655e+02 -5.036089e+01 9.465529e+02 -9.428251e+01 -4.380436e+01 9.612245e+02 -7.598190e+01 -2.935274e+01 1.052905e+03 -9.597803e-01 -1.845185e-01 1.051668e+03 -2.362443e+00 9.019013e-02 1.046142e+03 -5.930969e-01 -1.040872e+00 1.012199e+03 -1.972228e+01 -1.298264e+01 9.187925e+02 -7.858214e+01 -4.994552e+01 8.496927e+02 -1.310217e+02 -7.996178e+01 8.628843e+02 -1.255091e+02 -7.715945e+01 8.970095e+02 -9.028272e+01 -5.502247e+01 9.204668e+02 -5.544491e+01 -3.278489e+01 9.364689e+02 -2.463746e+01 -1.309556e+01 1.054486e+03 3.938853e-01 -1.091795e+00 1.053360e+03 -1.403482e+00 -5.369457e-01 1.032515e+03 -5.516616e+00 -3.637258e+00 9.520972e+02 -3.084665e+01 -3.221330e+01 7.519896e+02 -1.070269e+02 -1.028002e+02 6.773951e+02 -1.287829e+02 -1.254867e+02 7.803181e+02 -7.560481e+01 -7.048026e+01 8.486103e+02 -1.829813e+01 -1.383157e+01 8.780699e+02 1.674075e+01 1.995411e+01 8.914113e+02 2.271924e+01 2.964847e+01 1.052705e+03 -9.991798e-01 2.252861e+00 1.046341e+03 -1.950175e+00 -1.278350e-01 1.017020e+03 -4.234053e+00 -8.625263e+00 8.646162e+02 -1.775640e+01 -5.371838e+01 5.183698e+02 -5.061647e+01 -1.638617e+02 4.584551e+02 -5.866731e+01 -1.617200e+02 6.821857e+02 -3.818204e+00 -1.365106e+01 7.835073e+02 2.706662e+01 8.881892e+01 8.185204e+02 3.354435e+01 9.639064e+01 8.362982e+02 2.770770e+01 8.278061e+01 1.049399e+03 2.094437e+00 1.400316e-01 1.048540e+03 6.922132e-01 2.484248e-01 1.019489e+03 1.967333e+00 -8.554264e+00 8.677655e+02 1.671972e+01 -5.389808e+01 5.122786e+02 5.521947e+01 -1.658308e+02 4.584087e+02 5.918161e+01 -1.662018e+02 6.855232e+02 3.514818e-01 -1.962216e+01 7.895626e+02 -3.504972e+01 9.144857e+01 8.276899e+02 -3.873032e+01 9.453360e+01 8.422646e+02 -2.791415e+01 8.243776e+01 1.053263e+03 -2.846254e+00 -7.782460e-01 1.050953e+03 -1.935554e-01 -7.939423e-01 1.035189e+03 5.902231e+00 -4.564251e+00 9.451660e+02 3.274772e+01 -3.470734e+01 7.443167e+02 1.056452e+02 -1.035353e+02 6.749585e+02 1.292286e+02 -1.296251e+02 7.727735e+02 7.323604e+01 -6.970341e+01 8.461129e+02 1.514622e+01 -1.219253e+01 8.729236e+02 -1.427065e+01 1.896345e+01 8.828548e+02 -2.346534e+01 2.837392e+01 1.053757e+03 3.973771e+00 -1.796958e-01 1.050071e+03 8.921937e-01 -3.107325e+00 1.042814e+03 4.092469e+00 -4.824350e+00 1.006745e+03 2.399434e+01 -1.221443e+01 9.178137e+02 7.844613e+01 -4.505535e+01 8.456630e+02 1.317883e+02 -8.071655e+01 8.618877e+02 1.271340e+02 -7.559198e+01 8.935285e+02 9.525527e+01 -5.248757e+01 9.217522e+02 5.267457e+01 -3.054504e+01 9.368697e+02 2.535590e+01 -1.312404e+01 1.052251e+03 2.425389e+00 -1.152531e+00 1.050627e+03 3.763279e+00 -2.562317e-01 1.046737e+03 3.648237e+00 -3.674464e+00 1.035701e+03 1.255714e+01 -9.527837e+00 1.002913e+03 3.550794e+01 -1.826268e+01 9.594220e+02 8.207900e+01 -3.434476e+01 9.422436e+02 1.117723e+02 -4.589582e+01 9.440928e+02 1.157630e+02 -4.624223e+01 9.587441e+02 1.011052e+02 -3.889254e+01 9.714995e+02 7.574308e+01 -3.024230e+01 1.052847e+03 -2.763045e+00 -1.664236e+00 1.052328e+03 -4.575719e+00 -1.626704e+00 1.049674e+03 -3.290839e+00 -1.724637e+00 1.049617e+03 -3.641253e+00 3.479203e-01 1.047270e+03 -9.149344e+00 6.592941e-01 1.039308e+03 -1.968676e+01 -1.103076e+00 1.027525e+03 -3.653415e+01 -7.562881e-01 1.011273e+03 -5.619139e+01 -1.333596e+00 1.008144e+03 -7.187818e+01 -6.785169e+00 1.002930e+03 -8.396339e+01 -8.291399e+00 1.053181e+03 9.540743e-01 1.364419e+00 1.054994e+03 1.090800e+00 2.221275e+00 1.052212e+03 -2.682433e+00 1.659912e+00 1.045929e+03 -6.041127e+00 -3.219376e-01 1.031834e+03 -1.708387e+01 -5.008272e+00 1.006705e+03 -4.616721e+01 -7.023800e+00 9.821072e+02 -7.952843e+01 -1.270936e+01 9.716128e+02 -1.028398e+02 -1.249340e+01 9.706103e+02 -1.069318e+02 -1.433866e+01 9.788295e+02 -9.835901e+01 -1.309243e+01 1.051540e+03 3.383335e+00 -2.443091e+00 1.052679e+03 1.347182e+00 -7.638902e-01 1.047829e+03 -3.342287e+00 -7.104429e-01 1.032345e+03 -1.292611e+01 -4.137621e+00 9.835623e+02 -5.376540e+01 -9.713777e+00 9.259140e+02 -1.098304e+02 -1.671413e+01 9.081405e+02 -1.351488e+02 -2.126344e+01 9.218579e+02 -1.264897e+02 -1.915495e+01 9.366068e+02 -9.949481e+01 -1.006769e+01 9.522269e+02 -6.852116e+01 -1.070672e+01 1.055995e+03 -1.082306e+00 1.855628e+00 1.054308e+03 1.087597e+00 1.280887e+00 1.041733e+03 -4.246452e+00 6.330768e-01 9.834416e+02 -3.108134e+01 -8.110545e+00 8.353991e+02 -1.252166e+02 -2.418622e+01 7.644031e+02 -1.769541e+02 -3.696981e+01 8.200888e+02 -1.378894e+02 -2.705822e+01 8.729602e+02 -7.124318e+01 -1.284230e+01 9.045448e+02 -2.097945e+01 -9.738579e+00 9.141369e+02 7.256333e+00 -3.310611e+00 1.051671e+03 1.948979e+00 6.454414e-01 1.049826e+03 7.614242e-01 -5.044811e-01 1.019945e+03 -8.713956e+00 -2.921847e+00 8.663663e+02 -5.708062e+01 -1.995855e+01 5.168118e+02 -1.675373e+02 -5.280114e+01 4.602376e+02 -1.659871e+02 -5.822123e+01 6.919278e+02 -1.710871e+01 -5.007827e+00 7.885658e+02 9.214961e+01 3.303180e+01 8.245705e+02 1.022093e+02 3.726019e+01 8.409745e+02 8.833820e+01 3.046425e+01 1.050216e+03 -2.412624e+00 -6.485096e-01 1.043456e+03 -3.927456e+00 8.778026e-01 9.977770e+02 -5.713914e+00 -4.079075e+00 6.853209e+02 -3.220871e+01 -2.827206e+01 1.778946e+02 -7.999910e+01 -7.932413e+01 1.711828e+02 -1.119364e+02 -7.596244e+01 5.154422e+02 2.174711e+02 1.351446e+02 5.781276e+02 1.751015e+02 2.050191e+02 6.770711e+02 1.125665e+02 1.276885e+02 7.249811e+02 6.142956e+01 6.925775e+01 1.053307e+03 -6.784703e-02 -1.395350e-01 1.043449e+03 1.701489e+00 -2.190472e-01 9.998169e+02 1.143424e+00 -4.044946e-01 6.917385e+02 3.247098e+01 -2.736539e+01 1.782756e+02 7.658919e+01 -8.010337e+01 1.862259e+02 9.472948e+01 -1.140821e+02 5.156433e+02 -1.829078e+02 1.472496e+02 5.896620e+02 -1.973702e+02 1.926820e+02 6.602682e+02 -1.241526e+02 1.184538e+02 7.334336e+02 -6.918226e+01 7.188152e+01 1.051533e+03 -1.000578e+00 -9.432024e-01 1.047325e+03 -2.957043e+00 -1.291106e+00 1.019426e+03 4.702513e+00 -2.152702e+00 8.645034e+02 5.622715e+01 -1.590599e+01 5.197725e+02 1.633808e+02 -5.458152e+01 4.609032e+02 1.668900e+02 -5.835559e+01 6.892961e+02 1.330897e+01 -8.442673e+00 7.860401e+02 -9.481074e+01 2.665041e+01 8.220129e+02 -9.796309e+01 3.144247e+01 8.442986e+02 -8.294913e+01 2.835125e+01 1.050064e+03 -9.082803e-01 -3.111293e+00 1.048360e+03 3.391952e+00 -2.003643e+00 1.037558e+03 8.548465e+00 -1.208514e+00 9.871629e+02 3.320362e+01 -6.225423e+00 8.392827e+02 1.205891e+02 -2.296463e+01 7.660859e+02 1.751207e+02 -3.270970e+01 8.213706e+02 1.343879e+02 -2.665504e+01 8.723532e+02 7.207212e+01 -1.505395e+01 8.959028e+02 2.698598e+01 -6.016278e+00 9.153200e+02 3.318009e-01 1.545684e+00 1.052669e+03 1.682377e+00 -3.334613e+00 1.051319e+03 -3.338313e-01 -3.666635e+00 1.048263e+03 1.962860e+00 8.996772e-01 1.031895e+03 1.516932e+01 -2.965307e+00 9.826674e+02 5.263264e+01 -6.214666e+00 9.279260e+02 1.102218e+02 -1.415523e+01 9.137108e+02 1.395254e+02 -1.876468e+01 9.269848e+02 1.296118e+02 -1.891315e+01 9.486405e+02 9.755285e+01 -1.098510e+01 9.704230e+02 6.985651e+01 -1.034157e+01 1.053325e+03 -3.165193e+00 -8.886288e-02 1.050187e+03 -6.751591e-02 9.262058e-01 1.050415e+03 -6.422908e-01 9.665130e-01 1.051705e+03 -1.924047e+00 1.635330e+00 1.045023e+03 -6.583367e+00 -6.609061e-01 1.037399e+03 -1.767244e+01 2.269905e+00 1.021640e+03 -3.470206e+01 2.949744e+00 1.014874e+03 -5.601827e+01 5.221910e+00 1.004402e+03 -7.350514e+01 7.839243e+00 1.003585e+03 -8.255547e+01 7.989911e+00 1.051489e+03 -1.975971e+00 5.990257e-01 1.050221e+03 -3.048664e+00 2.892957e-01 1.047341e+03 -3.179116e+00 9.307719e-01 1.043323e+03 -7.949430e+00 7.962750e-01 1.030283e+03 -2.382902e+01 1.620871e+00 1.002716e+03 -5.173554e+01 3.142041e+00 9.820050e+02 -8.064699e+01 1.000459e+01 9.723558e+02 -1.037699e+02 1.270599e+01 9.724229e+02 -1.106379e+02 8.512795e+00 9.804880e+02 -1.008307e+02 8.039044e+00 1.051833e+03 -3.015981e+00 1.723734e+00 1.048436e+03 -1.046538e+00 6.029397e-01 1.044865e+03 -1.866750e+00 8.206534e-01 1.027757e+03 -1.434206e+01 5.908546e-01 9.810749e+02 -5.167585e+01 6.763369e+00 9.236950e+02 -1.114147e+02 1.423995e+01 9.106849e+02 -1.367743e+02 1.889401e+01 9.252205e+02 -1.235560e+02 1.931275e+01 9.408957e+02 -9.212486e+01 1.415278e+01 9.546547e+02 -6.770948e+01 8.006170e+00 1.053087e+03 -3.363624e-01 -3.082528e+00 1.051705e+03 -1.517485e+00 -6.376997e-01 1.039842e+03 -6.978091e+00 -8.405569e-01 9.857610e+02 -3.502520e+01 3.796294e+00 8.434675e+02 -1.197197e+02 2.266118e+01 7.689613e+02 -1.769424e+02 3.336191e+01 8.207885e+02 -1.307500e+02 2.726828e+01 8.751181e+02 -6.851469e+01 1.457244e+01 9.015097e+02 -2.454173e+01 4.273598e+00 9.187770e+02 5.642345e+00 -1.801695e+00 1.053213e+03 -2.231767e+00 -3.622434e+00 1.048992e+03 -2.069181e+00 -1.120845e+00 1.018840e+03 -6.751496e+00 1.784949e+00 8.641301e+02 -5.717798e+01 1.655275e+01 5.144211e+02 -1.656277e+02 5.696743e+01 4.661288e+02 -1.622228e+02 5.889627e+01 6.968063e+02 -2.124455e+01 2.587907e-01 7.966892e+02 8.915302e+01 -3.434176e+01 8.266010e+02 1.001948e+02 -3.119118e+01 8.424175e+02 8.066448e+01 -2.555256e+01 1.052368e+03 1.028819e+00 1.028238e+00 1.045665e+03 1.015387e+00 4.993518e-01 9.943372e+02 -5.164790e+00 2.969793e+00 6.838536e+02 -3.274012e+01 3.230540e+01 1.799526e+02 -7.981399e+01 7.646633e+01 1.976537e+02 -9.245108e+01 9.825168e+01 4.727553e+02 1.818275e+02 -1.436315e+02 5.919993e+02 2.058204e+02 -1.925214e+02 6.665857e+02 1.223605e+02 -1.188303e+02 7.336051e+02 7.588276e+01 -6.746337e+01 1.051416e+03 -4.175222e-01 2.535042e+00 1.043095e+03 -3.459014e-01 2.023268e+00 9.992308e+02 6.385284e+00 2.975723e+00 6.861082e+02 3.060923e+01 3.105404e+01 1.789115e+02 8.133441e+01 8.075913e+01 2.261509e+02 9.188491e+01 1.024563e+02 5.515608e+02 -1.697347e+02 -1.868792e+02 5.778448e+02 -1.702924e+02 -2.005457e+02 6.667769e+02 -1.168427e+02 -1.251890e+02 7.308100e+02 -7.775056e+01 -6.413121e+01 1.048921e+03 3.887959e-01 -1.350291e+00 1.045086e+03 -3.883155e-01 9.448586e-01 1.017852e+03 7.607554e+00 2.624531e+00 8.665166e+02 5.677324e+01 1.664435e+01 5.154788e+02 1.642370e+02 5.298716e+01 4.586125e+02 1.648533e+02 5.908805e+01 6.928790e+02 1.793645e+01 1.000414e+00 7.843767e+02 -9.118545e+01 -3.392510e+01 8.154736e+02 -9.420087e+01 -3.956000e+01 8.380469e+02 -8.108932e+01 -3.026861e+01 1.052857e+03 1.181167e+00 5.330958e-01 1.052091e+03 1.522600e+00 5.594039e-01 1.041730e+03 4.841759e+00 3.093352e-01 9.871760e+02 3.243323e+01 3.739930e+00 8.448567e+02 1.181377e+02 2.282053e+01 7.639386e+02 1.759607e+02 3.190548e+01 8.142167e+02 1.388363e+02 2.749043e+01 8.700289e+02 7.045803e+01 1.452521e+01 9.067017e+02 2.422803e+01 1.522147e+00 9.178333e+02 -5.828605e-01 -6.452684e+00 1.051809e+03 4.886772e+00 2.717763e+00 1.052290e+03 1.815529e+00 2.640171e-01 1.046003e+03 1.882202e+00 4.848837e-01 1.033935e+03 1.493327e+01 5.082238e-01 9.840996e+02 5.384893e+01 7.788828e+00 9.297923e+02 1.113354e+02 1.576632e+01 9.134689e+02 1.376851e+02 2.081647e+01 9.302683e+02 1.287266e+02 1.820685e+01 9.488953e+02 9.641109e+01 1.295853e+01 9.660602e+02 6.510790e+01 8.997495e+00 1.053623e+03 -2.672456e+00 -9.397049e-01 1.055144e+03 -2.733398e+00 -7.830720e-01 1.052604e+03 -3.367660e+00 -1.069942e+00 1.048368e+03 -6.252078e+00 4.728077e-01 1.047282e+03 -7.976227e+00 1.039125e+00 1.042154e+03 -1.050744e+01 2.538068e+00 1.032592e+03 -2.811506e+01 1.081876e+01 1.020198e+03 -4.559414e+01 1.407889e+01 1.013409e+03 -6.146956e+01 1.856593e+01 1.012823e+03 -7.549679e+01 1.949353e+01 1.050373e+03 1.422650e+00 -2.180208e+00 1.051891e+03 1.146206e+00 -8.677582e-01 1.052235e+03 4.678500e-01 4.672276e-01 1.049437e+03 -3.011405e+00 3.234195e+00 1.037342e+03 -1.229161e+01 4.383165e+00 1.019358e+03 -3.355526e+01 1.158868e+01 9.974311e+02 -6.448428e+01 2.186239e+01 9.879494e+02 -8.452444e+01 3.007679e+01 9.855262e+02 -9.531858e+01 3.421838e+01 9.836476e+02 -9.000703e+01 3.259690e+01 1.050955e+03 -7.832835e-01 2.531923e+00 1.049655e+03 -6.626337e-01 1.071964e+00 1.046419e+03 -1.000134e+00 -5.447279e-01 1.036974e+03 -9.081313e+00 3.274718e+00 1.003379e+03 -3.505544e+01 1.429889e+01 9.625421e+02 -8.007877e+01 3.397326e+01 9.413305e+02 -1.117902e+02 4.610169e+01 9.403247e+02 -1.122086e+02 4.786918e+01 9.508942e+02 -9.700033e+01 3.827278e+01 9.618830e+02 -7.661005e+01 3.122432e+01 1.051466e+03 -9.609766e-01 -2.035403e+00 1.050060e+03 -6.019928e-01 -9.409110e-01 1.044142e+03 -3.915181e+00 1.893437e+00 1.006503e+03 -1.866479e+01 9.537954e+00 9.142495e+02 -7.810674e+01 4.652086e+01 8.512588e+02 -1.280544e+02 7.611971e+01 8.630938e+02 -1.266295e+02 7.289806e+01 8.979299e+02 -9.212451e+01 5.467330e+01 9.175132e+02 -5.501109e+01 3.337888e+01 9.368827e+02 -2.514200e+01 1.433827e+01 1.052724e+03 2.827800e-01 2.738883e+00 1.050791e+03 -1.318749e+00 1.972919e+00 1.034676e+03 -5.015652e+00 4.644572e+00 9.485595e+02 -3.314295e+01 3.234913e+01 7.490640e+02 -1.030271e+02 1.070201e+02 6.770806e+02 -1.290575e+02 1.251737e+02 7.758763e+02 -7.155214e+01 7.132474e+01 8.461454e+02 -1.403252e+01 1.662257e+01 8.752414e+02 1.766967e+01 -1.557548e+01 8.871666e+02 2.897192e+01 -2.833851e+01 1.052705e+03 5.726134e-01 7.251517e-02 1.046088e+03 -1.106799e+00 -2.157826e-03 1.019996e+03 -2.714659e+00 7.826805e+00 8.722331e+02 -1.477908e+01 5.702562e+01 5.192940e+02 -5.135104e+01 1.648540e+02 4.616811e+02 -5.837818e+01 1.611367e+02 6.941555e+02 2.336587e+00 1.637457e+01 7.908783e+02 3.382258e+01 -9.015027e+01 8.236330e+02 2.961354e+01 -1.006735e+02 8.426458e+02 3.134634e+01 -8.474853e+01 1.054481e+03 6.666327e-01 -5.605167e-02 1.047682e+03 -1.034581e+00 -1.336927e+00 1.022561e+03 5.903104e-01 5.466121e+00 8.745764e+02 1.167243e+01 5.397779e+01 5.278734e+02 5.143382e+01 1.641154e+02 4.629216e+02 6.210085e+01 1.653848e+02 6.906570e+02 2.508229e+00 1.845655e+01 7.828396e+02 -2.688482e+01 -9.627055e+01 8.170627e+02 -3.611276e+01 -1.022482e+02 8.436882e+02 -3.062733e+01 -8.349328e+01 1.051275e+03 -2.285150e+00 -8.423264e-01 1.047665e+03 8.971992e-02 -1.141280e+00 1.032146e+03 4.980845e+00 6.076816e+00 9.492302e+02 3.094701e+01 3.114302e+01 7.490180e+02 1.075845e+02 1.044396e+02 6.738017e+02 1.303321e+02 1.278598e+02 7.753242e+02 7.233293e+01 7.087813e+01 8.488566e+02 1.339915e+01 1.398323e+01 8.768190e+02 -1.772397e+01 -2.217788e+01 8.912398e+02 -2.907502e+01 -3.060600e+01 1.053243e+03 3.067919e+00 3.259374e-02 1.052631e+03 2.248339e+00 9.544332e-01 1.042935e+03 5.467635e+00 1.533011e+00 1.009907e+03 2.248243e+01 9.759196e+00 9.193739e+02 7.613005e+01 4.608130e+01 8.501486e+02 1.334666e+02 7.944322e+01 8.606732e+02 1.281929e+02 7.598703e+01 8.958482e+02 9.282866e+01 5.082260e+01 9.201316e+02 5.633475e+01 3.200248e+01 9.387952e+02 2.450601e+01 1.167750e+01 1.054334e+03 2.485340e+00 -1.309751e+00 1.050061e+03 2.774668e+00 8.861441e-01 1.047807e+03 4.635100e+00 2.488806e+00 1.039221e+03 1.182335e+01 4.400812e+00 1.002417e+03 3.789428e+01 1.617729e+01 9.633233e+02 7.920537e+01 3.335194e+01 9.416952e+02 1.118318e+02 4.558254e+01 9.465834e+02 1.173341e+02 4.847344e+01 9.607475e+02 9.897843e+01 4.111027e+01 9.751063e+02 7.484878e+01 2.812911e+01 1.052128e+03 -2.175114e+00 -3.052612e-02 1.052598e+03 -4.573935e-01 2.547871e-01 1.052355e+03 -1.660080e+00 4.824515e-01 1.055450e+03 -1.285682e+00 2.367245e+00 1.050842e+03 -6.051531e+00 1.187106e-01 1.044703e+03 -8.408558e+00 1.486345e+00 1.037794e+03 -2.358953e+01 8.005724e+00 1.028477e+03 -3.385651e+01 1.424217e+01 1.020870e+03 -4.870709e+01 2.376329e+01 1.018471e+03 -6.142440e+01 2.569670e+01 1.053235e+03 1.372851e+00 -1.547665e+00 1.052772e+03 -7.848072e-01 -1.084105e+00 1.053568e+03 -4.784340e+00 -2.061018e+00 1.048996e+03 -2.114579e+00 7.428042e-02 1.041119e+03 -9.331209e+00 8.306363e+00 1.028316e+03 -2.305938e+01 1.486105e+01 1.015433e+03 -4.380599e+01 2.299182e+01 1.002562e+03 -6.382552e+01 3.670321e+01 9.943536e+02 -8.136802e+01 4.443773e+01 9.913597e+02 -8.206604e+01 4.804900e+01 1.051263e+03 -2.367699e+00 -1.409169e+00 1.050984e+03 -2.875597e+00 2.374709e+00 1.049795e+03 -1.415254e+00 1.343849e+00 1.040887e+03 -4.464967e+00 1.729731e+00 1.027015e+03 -1.840189e+01 1.172400e+01 9.963089e+02 -4.774031e+01 3.502524e+01 9.756038e+02 -7.302724e+01 5.137448e+01 9.627989e+02 -8.970698e+01 6.448322e+01 9.637118e+02 -8.905405e+01 6.236709e+01 9.730436e+02 -7.995256e+01 5.654832e+01 1.054946e+03 -5.826010e-01 7.659197e-01 1.052277e+03 -2.043462e-01 3.699711e+00 1.048297e+03 -2.146541e+00 3.593309e+00 1.030609e+03 -7.377690e+00 7.319677e+00 9.856951e+02 -3.228485e+01 3.270456e+01 9.321669e+02 -7.213033e+01 7.395200e+01 9.163351e+02 -9.087486e+01 9.217926e+01 9.277124e+02 -8.838036e+01 8.554145e+01 9.414750e+02 -7.107744e+01 6.715456e+01 9.555073e+02 -4.819029e+01 4.859388e+01 1.050234e+03 1.315714e+00 1.781433e+00 1.049685e+03 8.188859e-01 -4.403320e-01 1.043181e+03 -2.246397e+00 3.402112e+00 1.007135e+03 -1.291246e+01 2.135226e+01 9.162195e+02 -4.512997e+01 7.203187e+01 8.480351e+02 -7.857946e+01 1.283454e+02 8.574194e+02 -7.402761e+01 1.271776e+02 8.909244e+02 -5.301203e+01 9.034997e+01 9.193376e+02 -3.099443e+01 5.702404e+01 9.334976e+02 -1.113732e+01 2.369279e+01 1.051943e+03 -1.092750e-01 9.406069e-01 1.048556e+03 1.030368e+00 3.755289e+00 1.038866e+03 -1.355106e+00 4.877594e+00 9.851338e+02 -3.542589e+00 3.422431e+01 8.398752e+02 -2.087955e+01 1.214110e+02 7.683563e+02 -3.491008e+01 1.750782e+02 8.207486e+02 -2.959741e+01 1.370741e+02 8.726251e+02 -1.826975e+01 7.050560e+01 9.001001e+02 -4.160942e+00 2.274050e+01 9.156887e+02 -7.202886e-01 -6.511598e+00 1.050434e+03 1.660376e+00 -8.935725e-01 1.051913e+03 -5.106873e-01 5.891700e-01 1.041328e+03 1.184160e+00 5.459472e+00 9.866926e+02 8.445041e+00 3.130044e+01 8.453492e+02 2.446107e+01 1.172773e+02 7.636265e+02 3.540911e+01 1.715815e+02 8.173032e+02 2.753661e+01 1.373255e+02 8.715951e+02 1.276282e+01 7.179521e+01 8.995399e+02 3.739860e+00 2.269620e+01 9.131089e+02 -2.364471e-01 -6.981210e+00 1.053206e+03 -6.863735e-01 1.672057e+00 1.048848e+03 -9.390807e-01 1.225983e+00 1.044027e+03 2.435040e+00 5.495386e+00 1.010987e+03 1.108379e+01 2.004828e+01 9.123014e+02 4.444483e+01 7.674582e+01 8.460113e+02 8.024194e+01 1.327895e+02 8.629626e+02 7.801899e+01 1.251934e+02 8.944655e+02 5.683502e+01 8.913827e+01 9.208479e+02 3.182660e+01 5.203413e+01 9.373237e+02 1.555285e+01 2.691950e+01 1.054266e+03 -2.065560e-01 -5.222480e-03 1.052825e+03 -1.651437e-01 -1.097350e+00 1.047558e+03 -1.084695e+00 3.894052e+00 1.030069e+03 1.124831e+01 1.153551e+01 9.851892e+02 3.327671e+01 3.498662e+01 9.359386e+02 7.099813e+01 7.349889e+01 9.185980e+02 9.399364e+01 9.210534e+01 9.276667e+02 8.842403e+01 8.636592e+01 9.434839e+02 7.136321e+01 6.540613e+01 9.606961e+02 5.342016e+01 4.625440e+01 1.052629e+03 9.986173e-01 2.227583e+00 1.053076e+03 4.078897e-01 1.087397e+00 1.049089e+03 2.804850e+00 4.278403e-01 1.042612e+03 6.957156e+00 3.339586e+00 1.027082e+03 1.981202e+01 1.114080e+01 9.968774e+02 5.121715e+01 3.129991e+01 9.764241e+02 7.651478e+01 5.097802e+01 9.634155e+02 9.069091e+01 6.086262e+01 9.718162e+02 9.102277e+01 5.977585e+01 9.831136e+02 8.048244e+01 5.001723e+01 1.053138e+03 -3.786570e-01 -1.610026e+00 1.053590e+03 -2.217947e+00 -3.088478e-01 1.053173e+03 -1.191612e+00 1.074479e+00 1.053829e+03 -1.324248e+00 2.212816e+00 1.051738e+03 -2.589135e+00 1.757569e+00 1.049720e+03 -4.825314e+00 3.620639e+00 1.042401e+03 -1.172998e+01 5.783966e+00 1.041603e+03 -1.922540e+01 1.194871e+01 1.034384e+03 -2.928578e+01 1.821086e+01 1.029299e+03 -4.274285e+01 2.624317e+01 1.050988e+03 -1.233243e+00 -1.070838e+00 1.051566e+03 1.593383e+00 -1.137315e+00 1.051931e+03 -6.943173e-01 1.435400e-01 1.049609e+03 -2.206296e+00 1.905993e+00 1.047915e+03 -8.080232e+00 3.954067e+00 1.040807e+03 -1.195967e+01 8.744061e+00 1.030636e+03 -2.157941e+01 1.956645e+01 1.017350e+03 -3.570466e+01 2.950148e+01 1.012373e+03 -5.026322e+01 3.677594e+01 1.007714e+03 -6.024772e+01 4.755684e+01 1.053863e+03 2.264446e-01 -1.286338e-01 1.053667e+03 1.567414e+00 2.025024e+00 1.052014e+03 -1.494117e+00 1.121522e+00 1.049399e+03 -2.150900e+00 6.428287e+00 1.041491e+03 -8.955291e+00 1.130411e+01 1.025346e+03 -1.832029e+01 1.871859e+01 1.009113e+03 -3.446195e+01 4.078262e+01 9.947085e+02 -5.511795e+01 5.635994e+01 9.895068e+02 -6.195627e+01 6.499830e+01 9.881092e+02 -6.311755e+01 6.517171e+01 1.052681e+03 1.711678e+00 7.362175e-01 1.052030e+03 -6.293697e-01 1.328854e+00 1.049914e+03 -2.531817e+00 2.380010e+00 1.041811e+03 -1.528563e+00 6.135568e+00 1.023392e+03 -1.313510e+01 2.128803e+01 9.951775e+02 -3.135902e+01 4.884978e+01 9.723513e+02 -5.128267e+01 7.395932e+01 9.659028e+02 -6.117179e+01 8.886436e+01 9.667214e+02 -6.227933e+01 8.968813e+01 9.755921e+02 -5.675575e+01 7.816601e+01 1.052952e+03 -9.380737e-01 -4.359896e-01 1.051094e+03 6.254710e-01 -2.638314e+00 1.049451e+03 2.148480e-01 2.634254e+00 1.038331e+03 -4.129045e+00 9.726548e+00 1.001929e+03 -1.228853e+01 3.922867e+01 9.607587e+02 -3.281965e+01 8.263450e+01 9.343680e+02 -4.681084e+01 1.115132e+02 9.380772e+02 -4.881154e+01 1.106310e+02 9.498978e+02 -4.151752e+01 9.522686e+01 9.596029e+02 -3.463074e+01 7.808332e+01 1.049391e+03 -7.178521e-01 -1.272994e+00 1.052224e+03 -4.978105e-01 3.693337e-02 1.048460e+03 -1.582241e+00 2.153752e+00 1.030922e+03 -4.063397e+00 1.605231e+01 9.821032e+02 -5.248422e+00 5.546826e+01 9.267051e+02 -1.261113e+01 1.080287e+02 9.156355e+02 -1.781877e+01 1.361589e+02 9.262376e+02 -1.770863e+01 1.241662e+02 9.425401e+02 -1.310860e+01 9.240829e+01 9.602901e+02 -1.210029e+01 6.905539e+01 1.053449e+03 4.619840e-01 -1.366466e+00 1.052323e+03 1.457652e+00 -4.392343e-01 1.046192e+03 8.111824e-01 3.146406e+00 1.029103e+03 3.148105e+00 1.660472e+01 9.817106e+02 6.336629e+00 5.234932e+01 9.242448e+02 1.345307e+01 1.095862e+02 9.113661e+02 2.071630e+01 1.362244e+02 9.241505e+02 1.880184e+01 1.225643e+02 9.436976e+02 1.589625e+01 9.349967e+01 9.578533e+02 1.015413e+01 6.916158e+01 1.055275e+03 2.948357e+00 -5.211429e-01 1.055655e+03 2.117181e+00 -5.793716e-01 1.051384e+03 1.788369e+00 1.208391e+00 1.037580e+03 4.505672e+00 9.424243e+00 1.004056e+03 1.473212e+01 3.671814e+01 9.561416e+02 3.298885e+01 7.830606e+01 9.324763e+02 4.853633e+01 1.157246e+02 9.397863e+02 4.943093e+01 1.129984e+02 9.494671e+02 4.352165e+01 9.938515e+01 9.629574e+02 3.439110e+01 7.368604e+01 1.050226e+03 -1.781946e+00 -1.164484e+00 1.049558e+03 6.656565e-01 -8.109010e-01 1.050078e+03 1.544329e+00 5.145621e-01 1.045623e+03 3.930030e+00 5.598224e+00 1.026333e+03 1.148440e+01 1.857523e+01 9.990206e+02 3.320601e+01 4.349237e+01 9.739094e+02 5.566291e+01 7.474695e+01 9.632465e+02 6.978871e+01 8.939650e+01 9.673784e+02 6.485183e+01 8.653990e+01 9.749721e+02 6.102843e+01 7.679073e+01 1.051777e+03 1.901288e+00 -1.095795e+00 1.053091e+03 2.549695e+00 -1.893616e+00 1.049558e+03 2.659668e+00 3.429310e+00 1.049288e+03 3.939982e+00 3.801296e+00 1.040691e+03 7.990546e+00 8.141755e+00 1.025390e+03 1.981973e+01 2.009900e+01 1.009409e+03 4.148571e+01 3.936587e+01 9.985475e+02 5.969697e+01 5.307851e+01 9.940751e+02 6.897290e+01 6.054382e+01 9.975553e+02 7.085330e+01 6.132005e+01 1.050225e+03 -1.078648e+00 2.908933e+00 1.053822e+03 1.803477e-01 2.683201e+00 1.057162e+03 7.831427e-01 2.399963e-01 1.054715e+03 -1.289365e-02 -1.057510e+00 1.051956e+03 -1.102888e+00 -8.985046e-02 1.053801e+03 -2.423866e+00 9.948159e-01 1.048137e+03 -7.391504e+00 3.626788e+00 1.047146e+03 -1.132078e+01 7.170060e+00 1.042571e+03 -1.737411e+01 1.522026e+01 1.039596e+03 -2.512374e+01 2.041136e+01 1.056108e+03 1.263998e+00 1.725615e+00 1.055490e+03 1.160814e+00 3.663114e+00 1.052597e+03 -7.137907e-01 4.647385e+00 1.054125e+03 -9.075307e-01 2.838639e+00 1.049850e+03 -1.680196e+00 6.876386e+00 1.048416e+03 -3.686191e+00 6.829745e+00 1.043100e+03 -9.232448e+00 1.054907e+01 1.036405e+03 -1.769282e+01 2.067868e+01 1.031279e+03 -2.861460e+01 2.821358e+01 1.024652e+03 -3.761372e+01 3.733686e+01 1.053316e+03 -1.287465e+00 2.669784e+00 1.050873e+03 -5.639542e-01 -2.997783e-01 1.051200e+03 1.022708e-01 -7.936495e-01 1.049692e+03 8.026084e-01 8.591058e-01 1.049399e+03 -1.823544e+00 3.645717e+00 1.042447e+03 -7.965166e+00 1.087920e+01 1.032399e+03 -1.632801e+01 2.185193e+01 1.021604e+03 -2.302358e+01 3.634828e+01 1.013203e+03 -3.856009e+01 5.112465e+01 1.009580e+03 -4.510074e+01 5.989544e+01 1.055382e+03 1.109235e+00 2.918575e+00 1.056365e+03 6.551069e-01 3.241911e+00 1.054415e+03 2.126228e+00 3.285013e+00 1.051368e+03 6.702060e-01 5.354793e+00 1.044386e+03 -2.651506e+00 9.215037e+00 1.031705e+03 -9.963208e+00 2.353539e+01 1.017554e+03 -1.995353e+01 4.408063e+01 1.002811e+03 -3.482528e+01 6.320799e+01 9.994787e+02 -4.063716e+01 7.343522e+01 9.980698e+02 -4.252209e+01 8.075025e+01 1.053568e+03 -9.585420e-02 5.801160e+00 1.053369e+03 7.203417e-01 6.450969e+00 1.050623e+03 -1.149370e+00 6.549946e+00 1.047088e+03 -2.148070e-01 7.845014e+00 1.036485e+03 -4.212931e+00 1.711135e+01 1.019993e+03 -1.043687e+01 3.666602e+01 9.966761e+02 -2.326553e+01 6.360112e+01 9.837359e+02 -2.500393e+01 8.867968e+01 9.858028e+02 -2.901209e+01 9.485094e+01 9.872925e+02 -2.782478e+01 9.257458e+01 1.049761e+03 9.430100e-02 2.766907e+00 1.049733e+03 1.276653e+00 4.264595e+00 1.048459e+03 1.461498e+00 3.288535e+00 1.046369e+03 3.319858e-01 5.694153e+00 1.031313e+03 -6.162711e-01 1.636872e+01 1.007330e+03 -4.530945e+00 4.772256e+01 9.867441e+02 -6.247107e+00 7.817477e+01 9.780540e+02 -9.128412e+00 1.016821e+02 9.784706e+02 -7.687300e+00 1.047386e+02 9.875419e+02 -9.140419e+00 9.608328e+01 1.052123e+03 1.675895e-01 4.532002e+00 1.055337e+03 1.705971e+00 2.039133e+00 1.052942e+03 1.491239e+00 4.127083e+00 1.046216e+03 1.362828e+00 8.051059e+00 1.032640e+03 -5.632572e-01 1.950695e+01 1.007732e+03 4.903631e+00 4.486518e+01 9.846773e+02 8.651792e+00 7.972512e+01 9.756778e+02 1.183758e+01 1.054389e+02 9.774040e+02 1.327257e+01 1.086186e+02 9.864894e+02 1.364509e+01 9.628218e+01 1.052875e+03 5.987850e-01 3.813507e-01 1.053093e+03 -1.559758e+00 1.724909e+00 1.049714e+03 3.057928e-01 2.341441e+00 1.047432e+03 2.881803e+00 5.931696e+00 1.037247e+03 8.541487e+00 1.383893e+01 1.018861e+03 1.233110e+01 3.623016e+01 1.001299e+03 1.953551e+01 6.254201e+01 9.816547e+02 2.645067e+01 8.899898e+01 9.825912e+02 3.196787e+01 9.868055e+01 9.881191e+02 3.021812e+01 9.641391e+01 1.051467e+03 -2.502957e+00 2.600325e+00 1.051223e+03 -8.759327e-01 3.992761e+00 1.052924e+03 -1.249318e-01 3.167000e+00 1.050728e+03 8.900631e-01 4.552983e+00 1.041783e+03 4.542246e+00 8.322221e+00 1.031093e+03 1.233625e+01 1.904473e+01 1.017314e+03 2.412922e+01 4.175621e+01 1.005635e+03 3.685720e+01 6.141711e+01 9.969280e+02 4.392455e+01 7.812831e+01 9.978823e+02 4.389248e+01 8.202599e+01 1.054110e+03 3.639986e+00 1.810719e+00 1.053494e+03 1.838554e+00 2.447879e+00 1.051328e+03 2.529961e+00 -1.181389e-02 1.052344e+03 3.524494e+00 1.678672e+00 1.047650e+03 4.477216e+00 3.485124e+00 1.042965e+03 9.994246e+00 9.647397e+00 1.034351e+03 1.652811e+01 1.956201e+01 1.024240e+03 2.804576e+01 3.577050e+01 1.017163e+03 4.201702e+01 5.117803e+01 1.014139e+03 4.761277e+01 5.698126e+01 
</DataArray>
<DataArray type="Float64" Name="temperature" format="ascii">
1.979299e+02 1.987065e+02 1.995045e+02 2.009939e+02 2.008122e+02 2.053988e+02 2.101446e+02 2.168727e+02 2.250838e+02 2.345074e+02 2.002070e+02 2.008285e+02 2.009147e+02 2.039032e+02 2.051265e+02 2.167066e+02 2.253461e+02 2.359758e+02 2.499657e+02 2.604822e+02 1.995715e+02 2.002455e+02 1.986498e+02 2.050528e+02 2.115661e+02 2.281232e+02 2.465239e+02 2.666167e+02 2.806934e+02 2.814946e+02 2.007540e+02 2.002334e+02 2.009359e+02 2.086843e+02 2.248073e+02 2.489592e+02 2.745515e+02 2.954895e+02 2.996763e+02 2.957429e+02 1.994423e+02 2.018851e+02 2.041284e+02 2.135739e+02 2.367772e+02 2.770385e+02 3.086168e+02 3.202611e+02 3.156111e+02 2.996777e+02 2.002707e+02 2.025818e+02 2.021895e+02 2.134336e+02 2.471218e+02 2.946166e+02 3.260470e+02 3.322011e+02 3.225268e+02 3.040900e+02 1.995212e+02 2.022965e+02 2.063012e+02 2.152558e+02 2.477010e+02 2.957972e+02 3.281732e+02 3.330199e+02 3.215300e+02 3.061036e+02 2.000270e+02 2.008872e+02 2.044670e+02 2.132333e+02 2.373776e+02 2.764707e+02 3.065293e+02 3.218355e+02 3.171583e+02 3.001721e+02 1.998439e+02 1.998884e+02 2.023505e+02 2.110039e+02 2.229989e+02 2.459537e+02 2.782578e+02 2.986943e+02 3.053021e+02 2.962941e+02 1.992980e+02 1.999575e+02 2.013314e+02 2.035793e+02 2.119089e+02 2.258348e+02 2.428340e+02 2.600650e+02 2.748515e+02 2.767761e+02 1.975309e+02 1.975765e+02 1.983164e+02 2.002613e+02 2.058651e+02 2.131900e+02 2.194656e+02 2.349531e+02 2.469239e+02 2.571743e+02 2.009273e+02 1.975893e+02 1.989305e+02 2.038126e+02 2.105155e+02 2.273355e+02 2.476317e+02 2.697794e+02 2.836462e+02 2.860839e+02 2.002599e+02 2.020113e+02 2.021296e+02 2.065479e+02 2.256934e+02 2.570301e+02 2.964787e+02 3.091575e+02 3.117857e+02 3.049581e+02 1.997609e+02 2.015170e+02 2.060368e+02 2.233366e+02 2.594390e+02 3.169304e+02 3.462691e+02 3.447553e+02 3.328197e+02 3.133108e+02 2.016898e+02 2.031918e+02 2.133871e+02 2.381793e+02 3.089293e+02 3.741454e+02 3.853384e+02 3.645206e+02 3.374091e+02 3.123605e+02 2.025237e+02 2.015958e+02 2.132291e+02 2.524064e+02 3.438235e+02 4.201634e+02 4.137086e+02 3.749233e+02 3.385097e+02 3.155107e+02 2.006187e+02 2.048202e+02 2.146657e+02 2.550741e+02 3.532956e+02 4.241786e+02 4.132179e+02 3.741600e+02 3.396791e+02 3.123413e+02 2.022240e+02 2.023053e+02 2.108093e+02 2.395524e+02 3.064498e+02 3.756038e+02 3.875292e+02 3.663742e+02 3.330001e+02 3.100498e+02 1.987604e+02 1.994742e+02 2.054838e+02 2.212855e+02 2.621960e+02 3.130497e+02 3.472694e+02 3.486776e+02 3.303374e+02 3.055938e+02 2.005738e+02 2.005627e+02 2.047522e+02 2.103183e+02 2.321412e+02 2.595311e+02 2.907651e+02 3.071658e+02 3.054591e+02 2.950528e+02 1.969750e+02 2.006628e+02 1.991828e+02 2.041427e+02 2.075343e+02 2.208822e+02 2.339356e+02 2.514415e+02 2.687750e+02 2.753538e+02 1.997165e+02 1.995061e+02 2.010047e+02 2.096218e+02 2.238176e+02 2.505925e+02 2.812553e+02 2.987959e+02 3.074507e+02 3.010981e+02 2.007772e+02 2.028557e+02 2.057429e+02 2.206755e+02 2.595413e+02 3.164032e+02 3.463923e+02 3.460653e+02 3.290123e+02 3.133215e+02 1.988509e+02 2.035406e+02 2.096980e+02 2.473529e+02 3.363838e+02 4.110770e+02 4.078374e+02 3.743491e+02 3.375115e+02 3.132086e+02 2.012360e+02 2.077197e+02 2.214111e+02 2.943501e+02 4.471955e+02 5.029867e+02 4.447989e+02 3.827125e+02 3.404661e+02 3.122133e+02 2.011050e+02 2.055131e+02 2.307142e+02 3.501260e+02 5.586576e+02 5.687676e+02 4.582496e+02 3.800382e+02 3.352906e+02 3.160258e+02 2.006819e+02 2.060398e+02 2.324484e+02 3.456722e+02 5.539969e+02 5.685979e+02 4.578906e+02 3.824452e+02 3.435657e+02 3.184948e+02 2.020490e+02 2.052214e+02 2.224107e+02 2.873511e+02 4.583676e+02 5.033925e+02 4.469338e+02 3.838556e+02 3.386603e+02 3.122404e+02 2.015276e+02 2.025166e+02 2.116681e+02 2.507408e+02 3.439125e+02 4.152996e+02 4.100446e+02 3.744781e+02 3.407306e+02 3.128827e+02 1.984232e+02 2.011064e+02 2.041276e+02 2.209478e+02 2.628381e+02 3.146094e+02 3.479918e+02 3.423912e+02 3.237883e+02 3.066415e+02 2.007675e+02 2.009323e+02 2.004157e+02 2.073392e+02 2.133255e+02 2.291076e+02 2.519091e+02 2.750959e+02 2.824651e+02 2.878225e+02 2.010159e+02 2.004988e+02 2.005520e+02 2.111667e+02 2.416029e+02 2.760797e+02 3.152480e+02 3.260078e+02 3.234296e+02 3.093722e+02 2.015862e+02 2.026789e+02 2.099379e+02 2.395423e+02 3.140877e+02 3.828205e+02 3.944401e+02 3.675950e+02 3.387138e+02 3.154631e+02 2.010033e+02 2.028382e+02 2.206210e+02 2.944088e+02 4.548112e+02 5.080575e+02 4.461967e+02 3.823075e+02 3.423786e+02 3.180539e+02 2.003062e+02 2.051716e+02 2.474755e+02 4.076131e+02 6.514776e+02 6.111622e+02 4.698934e+02 3.805298e+02 3.473571e+02 3.270181e+02 2.014040e+02 2.103303e+02 2.687860e+02 5.592300e+02 7.945793e+02 6.547001e+02 4.836665e+02 3.861228e+02 3.614157e+02 3.598328e+02 2.031019e+02 2.096862e+02 2.728838e+02 5.600944e+02 7.991410e+02 6.542471e+02 4.840082e+02 3.827015e+02 3.602116e+02 3.540793e+02 2.013080e+02 2.068091e+02 2.441499e+02 4.209331e+02 6.499398e+02 6.055490e+02 4.710882e+02 3.801094e+02 3.363854e+02 3.256108e+02 1.982825e+02 2.034012e+02 2.236148e+02 2.968942e+02 4.498854e+02 5.111957e+02 4.447924e+02 3.824420e+02 3.393707e+02 3.129703e+02 1.978506e+02 2.029362e+02 2.068219e+02 2.352850e+02 3.009008e+02 3.752106e+02 3.852224e+02 3.593554e+02 3.295871e+02 3.055855e+02 2.014046e+02 2.021201e+02 2.049304e+02 2.063871e+02 2.155527e+02 2.370562e+02 2.589581e+02 2.803754e+02 2.879243e+02 2.912665e+02 1.985161e+02 2.003547e+02 2.055711e+02 2.179187e+02 2.469633e+02 2.935406e+02 3.322420e+02 3.373565e+02 3.279862e+02 3.113665e+02 2.019854e+02 2.027795e+02 2.120070e+02 2.481438e+02 3.392985e+02 4.201162e+02 4.180418e+02 3.793464e+02 3.395611e+02 3.169396e+02 1.999343e+02 2.053803e+02 2.312052e+02 3.502282e+02 5.624335e+02 5.665964e+02 4.592461e+02 3.857569e+02 3.401318e+02 3.190463e+02 1.974925e+02 2.074921e+02 2.742751e+02 5.574650e+02 7.915547e+02 6.553877e+02 4.913052e+02 3.843257e+02 3.622288e+02 3.579124e+02 2.046614e+02 2.134546e+02 3.228805e+02 8.011884e+02 7.577652e+02 5.871719e+02 4.109178e+02 4.171482e+02 4.594222e+02 4.529901e+02 2.019651e+02 2.188636e+02 3.085816e+02 7.936233e+02 7.605831e+02 5.865470e+02 3.674534e+02 4.217650e+02 4.675883e+02 4.478414e+02 2.005512e+02 2.138220e+02 2.710830e+02 5.594521e+02 7.954365e+02 6.567009e+02 4.774858e+02 3.800489e+02 3.599495e+02 3.493306e+02 2.014359e+02 2.064188e+02 2.287076e+02 3.405203e+02 5.577781e+02 5.657291e+02 4.553866e+02 3.786452e+02 3.353760e+02 3.139028e+02 1.997123e+02 1.998727e+02 2.085992e+02 2.465853e+02 3.409800e+02 4.131719e+02 4.094319e+02 3.708666e+02 3.310316e+02 3.030722e+02 2.000423e+02 2.012347e+02 2.005709e+02 2.029092e+02 2.162717e+02 2.348725e+02 2.614068e+02 2.808931e+02 2.901866e+02 2.879349e+02 1.995047e+02 2.018837e+02 2.061651e+02 2.155077e+02 2.487913e+02 3.016330e+02 3.320684e+02 3.390449e+02 3.283071e+02 3.108646e+02 2.007616e+02 2.031398e+02 2.100015e+02 2.475849e+02 3.411902e+02 4.246241e+02 4.113951e+02 3.758418e+02 3.358718e+02 3.133224e+02 2.011965e+02 2.036547e+02 2.323070e+02 3.434135e+02 5.544900e+02 5.681504e+02 4.591184e+02 3.783675e+02 3.413874e+02 3.149276e+02 2.012733e+02 2.121555e+02 2.734376e+02 5.564694e+02 7.976683e+02 6.546329e+02 4.884331e+02 3.799865e+02 3.574264e+02 3.576200e+02 2.007772e+02 2.166014e+02 3.239702e+02 7.991091e+02 7.585238e+02 5.887744e+02 3.119788e+02 4.071630e+02 4.567295e+02 4.458588e+02 2.015751e+02 2.152154e+02 3.181365e+02 7.960271e+02 7.588222e+02 6.098364e+02 4.605715e+02 4.243830e+02 4.605676e+02 4.422054e+02 2.033007e+02 2.131444e+02 2.739176e+02 5.500497e+02 7.912060e+02 6.561986e+02 4.842252e+02 3.808958e+02 3.610190e+02 3.518894e+02 2.006943e+02 2.042456e+02 2.294700e+02 3.384315e+02 5.536556e+02 5.665716e+02 4.582576e+02 3.792538e+02 3.334723e+02 3.112501e+02 2.004435e+02 2.021970e+02 2.138008e+02 2.479818e+02 3.433983e+02 4.177908e+02 4.111504e+02 3.701872e+02 3.318448e+02 3.046277e+02 1.991813e+02 1.987213e+02 1.994720e+02 2.022208e+02 2.086785e+02 2.238834e+02 2.473988e+02 2.664516e+02 2.808271e+02 2.816260e+02 2.006915e+02 1.992897e+02 2.033434e+02 2.142308e+02 2.349694e+02 2.711296e+02 3.076252e+02 3.200527e+02 3.175325e+02 3.079874e+02 2.014101e+02 2.023337e+02 2.112739e+02 2.369156e+02 3.088021e+02 3.722547e+02 3.856334e+02 3.668323e+02 3.340590e+02 3.157108e+02 2.012285e+02 2.053165e+02 2.258912e+02 2.974711e+02 4.582686e+02 5.072856e+02 4.415649e+02 3.810741e+02 3.417809e+02 3.135820e+02 2.011498e+02 2.065658e+02 2.424875e+02 4.123043e+02 6.546269e+02 6.110633e+02 4.660756e+02 3.772390e+02 3.432939e+02 3.268672e+02 2.015678e+02 2.118048e+02 2.712590e+02 5.498810e+02 7.894934e+02 6.608533e+02 4.887016e+02 3.854697e+02 3.643802e+02 3.547161e+02 2.012779e+02 2.123522e+02 2.667422e+02 5.411248e+02 7.876713e+02 6.554473e+02 4.847897e+02 3.850730e+02 3.555718e+02 3.483905e+02 2.003569e+02 2.071330e+02 2.455277e+02 4.114931e+02 6.542282e+02 6.100217e+02 4.682486e+02 3.794255e+02 3.411451e+02 3.197035e+02 1.986223e+02 2.039945e+02 2.224260e+02 2.959488e+02 4.498503e+02 5.078711e+02 4.455982e+02 3.833052e+02 3.407349e+02 3.140450e+02 1.993452e+02 2.020042e+02 2.040258e+02 2.304326e+02 3.071880e+02 3.710322e+02 3.875507e+02 3.606599e+02 3.312188e+02 3.037899e+02 2.001911e+02 1.991931e+02 1.995311e+02 2.010921e+02 2.071995e+02 2.165384e+02 2.331036e+02 2.506601e+02 2.628755e+02 2.702916e+02 2.008644e+02 1.996420e+02 2.016301e+02 2.092061e+02 2.218435e+02 2.502681e+02 2.788387e+02 2.958007e+02 3.003617e+02 3.005526e+02 1.999268e+02 2.048166e+02 2.079922e+02 2.225359e+02 2.593682e+02 3.137785e+02 3.427646e+02 3.452076e+02 3.269812e+02 3.105334e+02 2.010185e+02 2.046447e+02 2.118921e+02 2.474352e+02 3.337417e+02 4.090859e+02 4.040121e+02 3.714001e+02 3.419909e+02 3.143839e+02 2.001875e+02 2.044377e+02 2.227407e+02 2.995601e+02 4.482951e+02 5.061251e+02 4.448278e+02 3.791543e+02 3.363349e+02 3.126206e+02 2.023085e+02 2.066243e+02 2.336337e+02 3.409599e+02 5.595285e+02 5.694918e+02 4.588107e+02 3.821544e+02 3.388516e+02 3.161356e+02 2.026015e+02 2.083457e+02 2.318152e+02 3.476225e+02 5.553991e+02 5.710901e+02 4.601451e+02 3.829163e+02 3.394559e+02 3.153737e+02 2.019437e+02 2.069867e+02 2.212701e+02 2.895644e+02 4.571844e+02 5.082634e+02 4.438050e+02 3.817976e+02 3.386844e+02 3.124371e+02 1.999201e+02 2.015836e+02 2.116745e+02 2.508358e+02 3.327434e+02 4.069398e+02 4.056035e+02 3.701006e+02 3.371080e+02 3.088459e+02 1.990063e+02 2.008004e+02 2.059815e+02 2.206731e+02 2.560976e+02 3.114991e+02 3.411743e+02 3.395747e+02 3.240089e+02 3.036651e+02 2.002344e+02 2.000657e+02 2.003138e+02 2.009699e+02 2.060121e+02 2.124475e+02 2.231381e+02 2.326796e+02 2.459651e+02 2.556201e+02 1.998135e+02 1.996407e+02 2.007121e+02 2.051971e+02 2.133293e+02 2.267579e+02 2.481922e+02 2.705635e+02 2.792283e+02 2.817654e+02 1.990432e+02 1.996854e+02 2.040697e+02 2.113099e+02 2.300250e+02 2.610434e+02 2.914844e+02 3.104482e+02 3.105819e+02 3.039348e+02 1.985782e+02 2.026674e+02 2.060743e+02 2.172575e+02 2.628044e+02 3.162607e+02 3.433441e+02 3.465333e+02 3.302876e+02 3.135157e+02 2.024372e+02 2.029873e+02 2.111497e+02 2.368400e+02 3.108082e+02 3.763164e+02 3.906154e+02 3.670456e+02 3.375509e+02 3.119740e+02 2.016272e+02 2.050182e+02 2.128384e+02 2.494958e+02 3.467734e+02 4.181500e+02 4.151768e+02 3.746090e+02 3.351145e+02 3.130314e+02 2.007585e+02 2.024588e+02 2.128474e+02 2.558127e+02 3.447861e+02 4.214537e+02 4.137621e+02 3.761666e+02 3.385922e+02 3.110535e+02 2.004038e+02 2.015261e+02 2.086427e+02 2.361919e+02 3.067939e+02 3.756202e+02 3.918422e+02 3.699344e+02 3.381569e+02 3.107533e+02 1.994872e+02 2.022518e+02 2.022351e+02 2.209131e+02 2.572049e+02 3.097232e+02 3.469889e+02 3.459317e+02 3.271210e+02 3.101055e+02 1.973521e+02 1.983292e+02 2.030945e+02 2.085828e+02 2.243388e+02 2.570365e+02 2.902990e+02 3.033438e+02 3.052908e+02 2.948538e+02 1.983098e+02 1.982073e+02 1.977939e+02 1.981586e+02 2.014278e+02 2.046660e+02 2.092031e+02 2.190084e+02 2.273386e+02 2.377541e+02 1.977683e+02 1.988254e+02 1.999410e+02 2.023233e+02 2.075474e+02 2.101514e+02 2.246992e+02 2.393028e+02 2.483167e+02 2.584698e+02 2.002335e+02 2.013001e+02 2.025230e+02 2.057183e+02 2.089447e+02 2.257322e+02 2.463754e+02 2.640637e+02 2.800118e+02 2.795398e+02 1.982090e+02 1.999470e+02 2.029143e+02 2.079568e+02 2.228069e+02 2.546310e+02 2.798377e+02 3.005710e+02 3.041606e+02 3.009191e+02 1.994356e+02 2.001317e+02 2.061295e+02 2.109975e+02 2.351681e+02 2.741115e+02 3.097377e+02 3.254287e+02 3.165401e+02 3.049223e+02 1.990832e+02 2.010259e+02 2.049232e+02 2.147417e+02 2.513896e+02 2.956287e+02 3.278912e+02 3.342753e+02 3.230017e+02 3.056735e+02 1.980689e+02 2.011891e+02 2.050684e+02 2.168756e+02 2.486931e+02 2.960587e+02 3.304826e+02 3.376717e+02 3.214946e+02 3.044635e+02 2.005544e+02 1.983042e+02 2.033271e+02 2.131426e+02 2.384230e+02 2.758764e+02 3.085684e+02 3.220365e+02 3.158750e+02 3.035131e+02 2.004286e+02 1.986822e+02 1.995255e+02 2.078993e+02 2.236312e+02 2.493658e+02 2.771583e+02 2.952989e+02 3.011809e+02 2.972120e+02 1.999318e+02 2.003927e+02 2.026912e+02 2.023738e+02 2.097764e+02 2.230823e+02 2.446959e+02 2.607472e+02 2.757642e+02 2.771280e+02 
</DataArray>
</CellData>
</ImageData>
</VTKFile>
